X: 47
M:4/4
L:1/8
K:G
"Maestoso"B|e3 f gfed|e2 B2 B3 G|A3 c BAGF|G2 E2 E3 G|
e3 f gfed|e2 B2 B3 G|A3 c BAGF|G2 E2 E2 z||
g2 e2 gfe^d|e2 B2 B2 G2|A3 c BAGF|G2 E2 E2 z||

